X:1
T:English Lyrics (1st Set)
T:My true love hath my heart
T:To my wife
T:English Lyrics (1st Set)
T:1. My true love hath my heart
T:C. Hubert H. Parry
T:Sir Philip Sidney
T:Creative Commons copyright waiver (CC0 1.0 Universal)
T:Creative Commons copyright waiver (CC0 1.0 Universal)
T:Creative Commons copyright waiver (CC0 1.0 Universal)
C:Charles Hubert Hastings Parry
Z:Creative Commons copyright waiver (CC0 1.0 Universal)
L:1/8
Q:1/4=116
M:4/4
K:F
V:1 treble nm="Voice"
V:1
"^Allegretto" z | z8 | z8 | z8 | z4 z2 z!p! G | c A F G A3 c |!<(! d2!<)! d2 f3 e | %7
w: ||||My|true love hath my heart, And|I have his, By|
 d c A2 F F/ F/ B A | G2 F2 z2 z A | A2 A2 d3 d | c A E F A3 z | z8 | z8 | z8 | z8 | z8 | z8 | z8 | %18
w: just ex- change one to the o- ther|giv- en: I|hold his dear, And|mine he can- not miss,||||||||
 z8 | z8 | z8 | z8 | z8 | z8 | z8 | z8 | z8 | z8 | z8 |] %29
w: |||||||||||

